X: 36
T:Dublin Reel
M:C|
L:1/8
K:D
dFF2 dedc|dFF2 AFEF|[1 dFF2 dfed|cABF AFEF:|
|[2 d3c dfed|cABF AFEF||
eAA2 eAfA|eAA2 BAFA|[1 eAA2 egfe|dBcA BAFA:|
|[2 e3d egfe|dBcA BAFA||
d3c dFF2|dedB AFEF|[1 d3c dfed|cABF AFEF:|
|[2 dcdf egfe|dABc d3z||
